images/icons/shopping_cart.svg

<?xml version='1.0' encoding='utf-8'?>
<!DOCTYPE svg PUBLIC '-//W3C//DTD SVG 1.1//EN' 'http://www.w3.org/Graphics/SVG/1.1/DTD/svg11.dtd'>
<svg version="1.1" xmlns="http://www.w3.org/2000/svg" viewBox="0 0 512 512" xmlns:xlink="http://www.w3.org/1999/xlink" enable-background="new 0 0 512 512">
  <g>
    <g>
      <path d="m464.5,301.1l36.5-178h-359.7l-12.5-59.2-108.4-52.9-9.4,18.7 99,47.8 50,238.8h289c0,0 28.5,17.9 17.5,40.5-4.9,7-12.5,15.6-26.1,15.6h-287.6v20.6h287.7c19.8,0 36.5-10.4 45.9-27 18.4-34.4-21.9-64.9-21.9-64.9zm-286.7-5.7l-32.3-151.6h330.5l-31.3,151.6h-266.9z"/>
      <path d="m212.2,422.1c-21.9,0-39.6,17.6-39.6,39.4s17.7,39.4 39.6,39.4 39.6-17.6 39.6-39.4-17.7-39.4-39.6-39.4zm0,58.1c-10.4,0-18.8-8.3-18.8-18.7s8.3-18.7 18.8-18.7 18.8,8.3 18.8,18.7-8.4,18.7-18.8,18.7z"/>
      <path d="m424.9,422.1c-21.9,0-39.6,17.6-39.6,39.4s17.7,39.5 39.6,39.5 40.7-17.6 39.6-39.4c0-21.8-17.7-39.5-39.6-39.5zm18.8,39.5c0,10.4-8.3,18.7-18.8,18.7s-18.8-8.3-18.8-18.7 8.3-18.7 18.8-18.7 19.8,8.3 18.8,18.7z"/>
    </g>
  </g>
</svg>

<?xml version="1.0" encoding="utf-8"?>
<!-- Generator: Adobe Illustrator 26.2.1, SVG Export Plug-In . SVG Version: 6.00 Build 0)  -->
<svg version="1.1" id="Layer_1" xmlns="http://www.w3.org/2000/svg" xmlns:xlink="http://www.w3.org/1999/xlink" x="0px" y="0px"
	 viewBox="0 0 629 512" style="enable-background:new 0 0 629 512;" xml:space="preserve">
<style type="text/css">
	.st0{fill:#571019;}
	.st1{fill:#FFFFFF;}
	.st2{font-family:'Lato-Bold';}
	.st3{font-size:163px;}
</style>
<g>
	<g>
		<path d="M464.5,301.1l36.5-178H141.3l-12.5-59.2L20.4,11L11,29.7l99,47.8l50,238.8h289c0,0,28.5,17.9,17.5,40.5
			c-4.9,7-12.5,15.6-26.1,15.6H152.8V393h287.7c19.8,0,36.5-10.4,45.9-27C504.8,331.6,464.5,301.1,464.5,301.1z M177.8,295.4
			l-32.3-151.6H476l-31.3,151.6H177.8L177.8,295.4z"/>
		<path d="M212.2,422.1c-21.9,0-39.6,17.6-39.6,39.4s17.7,39.4,39.6,39.4s39.6-17.6,39.6-39.4S234.1,422.1,212.2,422.1L212.2,422.1z
			 M212.2,480.2c-10.4,0-18.8-8.3-18.8-18.7s8.3-18.7,18.8-18.7s18.8,8.3,18.8,18.7S222.6,480.2,212.2,480.2z"/>
		<path d="M424.9,422.1c-21.9,0-39.6,17.6-39.6,39.4S403,501,424.9,501s40.7-17.6,39.6-39.4C464.5,439.8,446.8,422.1,424.9,422.1z
			 M443.7,461.6c0,10.4-8.3,18.7-18.8,18.7s-18.8-8.3-18.8-18.7s8.3-18.7,18.8-18.7S444.7,451.2,443.7,461.6z"/>
	</g>
</g>
<circle class="st0" cx="479.8" cy="121.3" r="103.5"/>
<text transform="matrix(1 0 0 1 432.6672 175.4925)" class="st1 st2 st3">1</text>
</svg>
